icon.svg

<?xml version="1.0" encoding="UTF-8" standalone="no"?>
<!-- Generator: Adobe Illustrator 16.0.0, SVG Export Plug-In . SVG Version: 6.00 Build 0)  -->

<svg
   xmlns:dc="http://purl.org/dc/elements/1.1/"
   xmlns:cc="http://creativecommons.org/ns#"
   xmlns:rdf="http://www.w3.org/1999/02/22-rdf-syntax-ns#"
   xmlns:svg="http://www.w3.org/2000/svg"
   xmlns="http://www.w3.org/2000/svg"
   xmlns:sodipodi="http://sodipodi.sourceforge.net/DTD/sodipodi-0.dtd"
   xmlns:inkscape="http://www.inkscape.org/namespaces/inkscape"
   version="1.1"
   id="Capa_1"
   x="0px"
   y="0px"
   width="612px"
   height="612px"
   viewBox="0 0 612 612"
   style="enable-background:new 0 0 612 612;"
   xml:space="preserve"
   inkscape:version="0.91 r13725"
   sodipodi:docname="icon.svg"><metadata
     id="metadata3472"><rdf:RDF><cc:Work
         rdf:about=""><dc:format>image/svg+xml</dc:format><dc:type
           rdf:resource="http://purl.org/dc/dcmitype/StillImage" /><dc:title></dc:title></cc:Work></rdf:RDF></metadata><defs
     id="defs3470" /><sodipodi:namedview
     pagecolor="#ffffff"
     bordercolor="#666666"
     borderopacity="1"
     objecttolerance="10"
     gridtolerance="10"
     guidetolerance="10"
     inkscape:pageopacity="0"
     inkscape:pageshadow="2"
     inkscape:window-width="1822"
     inkscape:window-height="1044"
     id="namedview3468"
     showgrid="false"
     inkscape:zoom="1.3839869"
     inkscape:cx="46.604487"
     inkscape:cy="306"
     inkscape:window-x="98"
     inkscape:window-y="36"
     inkscape:window-maximized="1"
     inkscape:current-layer="g3433" /><g
     id="g3433"><g
       id="screen-rotation"
       style="fill:#ffffff;image-rendering:auto"
       transform="matrix(0.729,0,0,0.729,82.926,82.926)"><path
         d="m 419.475,63.75 c 84.15,38.25 142.8,119.85 153,216.75 l 38.25,0 C 595.425,122.4 465.375,0 304.725,0 c -5.1,0 -10.2,0 -17.85,0 l 96.9,96.9 35.7,-33.15 z m -160.65,-20.4 c -15.3,-15.3 -38.25,-15.3 -53.55,0 l -163.2,163.2 c -15.3,15.3 -15.3,38.25 0,53.55 l 306,306 c 15.301,15.301 38.25,15.301 53.551,0 L 564.825,402.9 c 15.301,-15.301 15.301,-38.25 0,-53.551 l -306,-305.999 z m 117.3,497.25 -306,-306 163.2,-163.2 306,306 -163.2,163.2 z m -186.15,7.65 C 105.825,510 47.175,428.4 36.975,331.5 l -35.7,0 c 12.75,158.1 142.8,280.5 303.45,280.5 5.1,0 10.2,0 17.85,0 l -96.899,-96.9 -35.701,33.15 z"
         id="path3436"
         style="fill:#ffffff"
         inkscape:connector-curvature="0" /></g></g><g
     id="g3438" /><g
     id="g3440" /><g
     id="g3442" /><g
     id="g3444" /><g
     id="g3446" /><g
     id="g3448" /><g
     id="g3450" /><g
     id="g3452" /><g
     id="g3454" /><g
     id="g3456" /><g
     id="g3458" /><g
     id="g3460" /><g
     id="g3462" /><g
     id="g3464" /><g
     id="g3466" /></svg>

<?xml version="1.0" encoding="UTF-8" standalone="no"?>
<!-- Generator: Adobe Illustrator 16.0.0, SVG Export Plug-In . SVG Version: 6.00 Build 0)  -->

<svg
   xmlns:dc="http://purl.org/dc/elements/1.1/"
   xmlns:cc="http://creativecommons.org/ns#"
   xmlns:rdf="http://www.w3.org/1999/02/22-rdf-syntax-ns#"
   xmlns:svg="http://www.w3.org/2000/svg"
   xmlns="http://www.w3.org/2000/svg"
   xmlns:sodipodi="http://sodipodi.sourceforge.net/DTD/sodipodi-0.dtd"
   xmlns:inkscape="http://www.inkscape.org/namespaces/inkscape"
   version="1.1"
   id="Capa_1"
   x="0px"
   y="0px"
   width="612px"
   height="612px"
   viewBox="0 0 612 612"
   style="enable-background:new 0 0 612 612;"
   xml:space="preserve"
   inkscape:version="0.91 r13725"
   sodipodi:docname="screenrotator-white.svg"><metadata
     id="metadata3472"><rdf:RDF><cc:Work
         rdf:about=""><dc:format>image/svg+xml</dc:format><dc:type
           rdf:resource="http://purl.org/dc/dcmitype/StillImage" /><dc:title></dc:title></cc:Work></rdf:RDF></metadata><defs
     id="defs3470" /><sodipodi:namedview
     pagecolor="#ffffff"
     bordercolor="#666666"
     borderopacity="1"
     objecttolerance="10"
     gridtolerance="10"
     guidetolerance="10"
     inkscape:pageopacity="0"
     inkscape:pageshadow="2"
     inkscape:window-width="1920"
     inkscape:window-height="1016"
     id="namedview3468"
     showgrid="false"
     inkscape:zoom="1.3839869"
     inkscape:cx="189.30815"
     inkscape:cy="306"
     inkscape:window-x="0"
     inkscape:window-y="0"
     inkscape:window-maximized="1"
     inkscape:current-layer="g3433" /><g
     id="g3433"><g
       id="screen-rotation"
       style="image-rendering:auto;fill:#ffffff"><path
         d="M419.475,63.75c84.15,38.25,142.8,119.85,153,216.75h38.25C595.425,122.4,465.375,0,304.725,0c-5.1,0-10.2,0-17.85,0    l96.9,96.9L419.475,63.75z M258.825,43.35c-15.3-15.3-38.25-15.3-53.55,0l-163.2,163.2c-15.3,15.3-15.3,38.25,0,53.55l306,306    c15.301,15.301,38.25,15.301,53.551,0L564.825,402.9c15.301-15.301,15.301-38.25,0-53.551L258.825,43.35z M376.125,540.6l-306-306    l163.2-163.2l306,306L376.125,540.6z M189.975,548.25c-84.15-38.25-142.8-119.85-153-216.75h-35.7    c12.75,158.1,142.8,280.5,303.45,280.5c5.1,0,10.2,0,17.85,0l-96.899-96.9L189.975,548.25z"
         id="path3436"
         style="fill:#ffffff" /></g></g><g
     id="g3438" /><g
     id="g3440" /><g
     id="g3442" /><g
     id="g3444" /><g
     id="g3446" /><g
     id="g3448" /><g
     id="g3450" /><g
     id="g3452" /><g
     id="g3454" /><g
     id="g3456" /><g
     id="g3458" /><g
     id="g3460" /><g
     id="g3462" /><g
     id="g3464" /><g
     id="g3466" /></svg>
